img/logo-footer.svg

<svg width="143" height="44" viewBox="0 0 143 44" fill="none" xmlns="http://www.w3.org/2000/svg">
<path d="M0 43.4365L4.23273 10.9273H23.6384L22.7247 17.4291H9.84558L9.00801 23.7955H18.6959L17.6761 29.9777H8.1582L7.13843 37.0024H19.8856L19.1568 43.4365H0Z" fill="white"/>
<path d="M20.6868 43.4365L25.2554 10.9273H31.782L27.2134 43.4365H20.6868Z" fill="white"/>
<path d="M51.3402 29.5876L49.404 43.4365H42.8775L44.5744 31.4081C44.6759 30.729 44.5961 30.1149 44.3351 29.5659C44.074 29.0024 43.6896 28.5617 43.182 28.2439C42.6744 27.9115 42.0798 27.7454 41.3981 27.7454C40.7164 27.7454 40.071 27.9115 39.4619 28.2439C38.8672 28.5617 38.3669 29.0024 37.9608 29.5659C37.5692 30.1149 37.3226 30.729 37.2211 31.4081L35.5242 43.4365H28.9976L33.5445 10.9273H40.071L38.3741 23.1291C39.1863 22.5078 40.0783 22.0238 41.05 21.677C42.0363 21.3302 43.0442 21.1568 44.074 21.1568C45.6404 21.1568 47.0037 21.5397 48.164 22.3055C49.3388 23.0568 50.2162 24.0682 50.7963 25.3397C51.391 26.6112 51.5723 28.0271 51.3402 29.5876Z" fill="white"/>
<path d="M59.3482 44C57.3467 44 55.5918 43.4871 54.0834 42.4612C52.5896 41.4354 51.4728 40.0555 50.7331 38.3217C50.0079 36.5879 49.7904 34.6735 50.0805 32.5784C50.298 31.0035 50.7839 29.5298 51.5381 28.1572C52.3067 26.7701 53.264 25.5564 54.4098 24.5161C55.5555 23.4614 56.8246 22.6378 58.2169 22.0454C59.6237 21.453 61.0741 21.1568 62.568 21.1568C64.3084 21.1568 65.8457 21.5397 67.1801 22.3055C68.5144 23.0568 69.5876 24.0827 70.3998 25.383C71.2265 26.669 71.7269 28.121 71.9009 29.7393C72.0895 31.3575 71.9009 33.0263 71.3353 34.7457H56.8246C56.9551 35.2514 57.1582 35.7138 57.4337 36.1328C57.7238 36.5373 58.1009 36.8624 58.565 37.108C59.0291 37.3537 59.5947 37.4837 60.2619 37.4981C60.9001 37.5126 61.5092 37.3753 62.0893 37.0864C62.684 36.7974 63.2134 36.4073 63.6775 35.916L70.117 37.4548C68.9712 39.3765 67.4339 40.9514 65.5049 42.1795C63.5759 43.3932 61.5237 44 59.3482 44ZM57.2597 29.9777H65.4179C65.3019 29.3564 65.0698 28.8073 64.7217 28.3305C64.3881 27.8537 63.9675 27.4781 63.4599 27.2036C62.9668 26.929 62.4084 26.7918 61.7848 26.7918C61.1756 26.7918 60.581 26.929 60.0008 27.2036C59.4207 27.4781 58.8913 27.8537 58.4127 28.3305C57.9486 28.8073 57.5643 29.3564 57.2597 29.9777Z" fill="white"/>
<path d="M88.9703 21.7637H95.4968L92.4511 43.4365H85.9028L85.8593 41.486C85.2066 42.2373 84.4379 42.8441 83.5532 43.3065C82.683 43.7688 81.704 44 80.6163 44C78.9919 44 77.5125 43.6966 76.1782 43.0897C74.8584 42.4829 73.7344 41.6449 72.8062 40.5757C71.8924 39.4921 71.2325 38.2495 70.8264 36.848C70.4203 35.432 70.3333 33.9149 70.5654 32.2967C70.7829 30.7507 71.2688 29.3058 72.023 27.9621C72.7917 26.6184 73.7489 25.4408 74.8947 24.4294C76.0549 23.4036 77.3457 22.6017 78.7671 22.0238C80.2029 21.4458 81.6895 21.1568 83.2269 21.1568C84.4742 21.1568 85.5692 21.4169 86.5119 21.9371C87.4692 22.4428 88.2959 23.0785 88.992 23.8443L88.9703 21.7637ZM81.3124 37.7582C82.2117 37.7582 83.0601 37.527 83.8578 37.0647C84.67 36.6023 85.3517 35.9811 85.9028 35.2008C86.4539 34.4206 86.7948 33.5537 86.9253 32.6001C87.0558 31.6465 86.9543 30.7796 86.6207 29.9994C86.3016 29.2191 85.8013 28.5978 85.1196 28.1355C84.4524 27.6731 83.6693 27.442 82.77 27.442C81.8708 27.442 81.0224 27.6731 80.2247 28.1355C79.427 28.5978 78.7598 29.2191 78.2232 29.9994C77.6866 30.7796 77.353 31.6465 77.2225 32.6001C77.0919 33.5537 77.1862 34.4206 77.5053 35.2008C77.8244 35.9811 78.3175 36.6023 78.9846 37.0647C79.6518 37.527 80.4277 37.7582 81.3124 37.7582Z" fill="white"/>
<path d="M107.435 28.2655H103.737L101.605 43.4365H95.078L97.21 28.2655H94.3819L95.2956 21.7637H98.1238L99.768 10.9273H106.194L104.65 21.7637H108.349L107.435 28.2655Z" fill="white"/>
<path d="M114.809 44C112.807 44 111.052 43.4871 109.544 42.4612C108.05 41.4354 106.933 40.0555 106.194 38.3217C105.468 36.5879 105.251 34.6735 105.541 32.5784C105.758 31.0035 106.244 29.5298 106.999 28.1572C107.767 26.7701 108.724 25.5564 109.87 24.5161C111.016 23.4614 112.285 22.6378 113.677 22.0454C115.084 21.453 116.535 21.1568 118.028 21.1568C119.769 21.1568 121.306 21.5397 122.641 22.3055C123.975 23.0568 125.048 24.0827 125.86 25.383C126.687 26.669 127.187 28.121 127.361 29.7393C127.55 31.3575 127.361 33.0263 126.796 34.7457H112.285C112.416 35.2514 112.619 35.7138 112.894 36.1328C113.184 36.5373 113.561 36.8624 114.025 37.108C114.49 37.3537 115.055 37.4837 115.722 37.4981C116.361 37.5126 116.97 37.3753 117.55 37.0864C118.144 36.7974 118.674 36.4073 119.138 35.916L125.577 37.4548C124.432 39.3765 122.894 40.9514 120.965 42.1795C119.036 43.3932 116.984 44 114.809 44ZM112.72 29.9777H120.878C120.762 29.3564 120.53 28.8073 120.182 28.3305C119.849 27.8537 119.428 27.4781 118.92 27.2036C118.427 26.929 117.869 26.7918 117.245 26.7918C116.636 26.7918 116.041 26.929 115.461 27.2036C114.881 27.4781 114.352 27.8537 113.873 28.3305C113.409 28.8073 113.025 29.3564 112.72 29.9777Z" fill="white"/>
<path d="M125.574 43.4365L128.598 21.7637H135.125L134.951 23.1291C135.763 22.5078 136.655 22.0238 137.626 21.677C138.613 21.3302 139.621 21.1568 140.65 21.1568C141.434 21.1568 142.217 21.2724 143 21.5036L139.497 28.0921C139.033 27.861 138.526 27.7454 137.975 27.7454C137.293 27.7454 136.647 27.9115 136.038 28.2439C135.444 28.5617 134.943 29.0024 134.537 29.5659C134.146 30.1149 133.899 30.729 133.798 31.4081L132.101 43.4365H125.574Z" fill="white"/>
<path d="M58.4887 0C62.1857 5.57169 63.5411 10.1908 62.5549 13.8574C61.4925 17.8076 59.0814 20.08 56.3191 20.6499C56.7932 20.1003 57.1739 19.376 57.4153 18.4785C57.9084 16.6452 57.2307 14.3356 55.3822 11.5498C52.3831 13.0417 50.637 14.7042 50.1439 16.5375C49.9025 17.435 49.8686 18.2519 50.0023 18.9638C47.8972 17.0946 46.9497 13.9256 48.0122 9.97548C48.9984 6.30888 52.4906 2.98372 58.4887 0Z" fill="white"/>
</svg>

<svg width="143" height="44" fill="none" xmlns="http://www.w3.org/2000/svg"><path d="m0 43.437 4.233-32.51h19.405l-.913 6.502H9.845l-.837 6.367h9.688l-1.02 6.182H8.158l-1.02 7.024h12.748l-.73 6.434H0Zm20.687 0 4.568-32.51h6.527l-4.569 32.51h-6.526ZM51.34 29.588l-1.936 13.849h-6.527l1.697-12.029c.102-.679.022-1.293-.239-1.842a3.019 3.019 0 0 0-1.153-1.322c-.508-.332-1.102-.499-1.784-.499-.682 0-1.327.166-1.936.499a4.373 4.373 0 0 0-1.501 1.322 4.194 4.194 0 0 0-.74 1.842l-1.697 12.029h-6.526l4.546-32.51h6.527L38.374 23.13a9.796 9.796 0 0 1 2.676-1.452 9.054 9.054 0 0 1 3.024-.52c1.566 0 2.93.383 4.09 1.148a6.955 6.955 0 0 1 2.632 3.035c.595 1.271.776 2.687.544 4.248Z" fill="#fff"/><path d="M59.348 44c-2.001 0-3.756-.513-5.265-1.539-1.493-1.026-2.61-2.405-3.35-4.14-.725-1.733-.943-3.648-.652-5.743a12.713 12.713 0 0 1 1.457-4.42 14.125 14.125 0 0 1 2.872-3.642 13.25 13.25 0 0 1 3.807-2.47 11.108 11.108 0 0 1 4.351-.89c1.74 0 3.278.384 4.612 1.15a8.87 8.87 0 0 1 3.22 3.077c.826 1.286 1.327 2.738 1.5 4.356.19 1.619 0 3.287-.565 5.007h-14.51c.13.505.333.968.609 1.387.29.404.667.73 1.131.975.464.246 1.03.376 1.697.39a3.846 3.846 0 0 0 1.827-.412 5.443 5.443 0 0 0 1.589-1.17l6.439 1.539c-1.146 1.922-2.683 3.496-4.612 4.724C63.575 43.393 61.524 44 59.348 44ZM57.26 29.978h8.158a3.997 3.997 0 0 0-.696-1.648 3.626 3.626 0 0 0-1.262-1.126c-.493-.275-1.052-.412-1.675-.412-.61 0-1.204.137-1.784.412a5.69 5.69 0 0 0-1.588 1.127 6.35 6.35 0 0 0-1.153 1.647Z" fill="#fff"/><path d="M88.97 21.764h6.527L92.45 43.437h-6.548l-.044-1.951a7.836 7.836 0 0 1-2.306 1.82c-.87.463-1.849.694-2.937.694-1.624 0-3.103-.303-4.438-.91a9.863 9.863 0 0 1-3.372-2.514 10.05 10.05 0 0 1-1.98-3.728c-.406-1.416-.493-2.933-.26-4.551a12.27 12.27 0 0 1 1.457-4.335 13.85 13.85 0 0 1 2.872-3.533 13.463 13.463 0 0 1 3.872-2.405 11.836 11.836 0 0 1 4.46-.867c1.247 0 2.342.26 3.285.78a8.996 8.996 0 0 1 2.48 1.907l-.022-2.08Zm-7.658 15.994a5 5 0 0 0 2.546-.693 6.289 6.289 0 0 0 2.045-1.864 5.808 5.808 0 0 0 1.022-2.6c.13-.954.03-1.821-.304-2.602a4.052 4.052 0 0 0-1.501-1.863c-.668-.463-1.45-.694-2.35-.694-.9 0-1.748.231-2.545.694a6.148 6.148 0 0 0-2.002 1.863 5.948 5.948 0 0 0-1 2.601c-.131.954-.037 1.82.282 2.6.32.781.813 1.402 1.48 1.865.667.462 1.443.693 2.327.693Z" fill="#fff"/><path d="M107.435 28.265h-3.698l-2.132 15.172h-6.527l2.132-15.171h-2.828l.914-6.502h2.828l1.644-10.837h6.426l-1.544 10.837h3.699l-.914 6.502Z" fill="#fff"/><path d="M114.809 44c-2.002 0-3.757-.513-5.265-1.539-1.494-1.026-2.611-2.405-3.35-4.14-.726-1.733-.943-3.648-.653-5.743a12.687 12.687 0 0 1 1.458-4.42 14.105 14.105 0 0 1 2.871-3.642 13.257 13.257 0 0 1 3.807-2.47 11.111 11.111 0 0 1 4.351-.89c1.741 0 3.278.384 4.613 1.15a8.869 8.869 0 0 1 3.219 3.077c.827 1.286 1.327 2.738 1.501 4.356.189 1.619 0 3.287-.565 5.007h-14.511c.131.505.334.968.609 1.387.29.404.667.73 1.131.975.465.246 1.03.376 1.697.39a3.846 3.846 0 0 0 1.828-.412 5.45 5.45 0 0 0 1.588-1.17l6.439 1.539c-1.145 1.922-2.683 3.496-4.612 4.724-1.929 1.214-3.981 1.821-6.156 1.821Zm-2.089-14.022h8.158a3.998 3.998 0 0 0-.696-1.648 3.618 3.618 0 0 0-1.262-1.126c-.493-.275-1.051-.412-1.675-.412-.609 0-1.204.137-1.784.412-.58.274-1.109.65-1.588 1.127a6.362 6.362 0 0 0-1.153 1.647Z" fill="#fff"/><path d="m125.574 43.437 3.024-21.673h6.527l-.174 1.365a9.798 9.798 0 0 1 2.675-1.452 9.06 9.06 0 0 1 3.024-.52 8.26 8.26 0 0 1 2.35.347l-3.503 6.588a3.365 3.365 0 0 0-1.522-.347c-.682 0-1.328.166-1.937.499a4.378 4.378 0 0 0-1.501 1.322 4.195 4.195 0 0 0-.739 1.842l-1.697 12.029h-6.527ZM58.489 0c3.697 5.572 5.052 10.19 4.066 13.857-1.063 3.95-3.474 6.223-6.236 6.793.474-.55.855-1.274 1.096-2.171.493-1.834-.184-4.143-2.033-6.93-2.999 1.493-4.745 3.155-5.238 4.989-.241.897-.275 1.714-.142 2.426-2.105-1.87-3.052-5.038-1.99-8.989C48.998 6.31 52.491 2.984 58.49 0Z" fill="#fff"/></svg>
